flaticon/emoticons/sad.svg

<svg xmlns="http://www.w3.org/2000/svg" width="32" height="32" viewBox="0 0 24 24">
    <path d="M12.246094 15.507812C10.085938 15.507812 8.328125 17.265625 8.328125 19.425781 8.328125 19.699219 8.546875 19.917969 8.816406 19.917969 9.085938 19.917969 9.304688 19.699219 9.304688 19.425781 9.304688 17.804688 10.625 16.488281 12.246094 16.488281 13.867188 16.488281 15.183594 17.804688 15.183594 19.425781 15.183594 19.699219 15.402344 19.917969 15.671875 19.917969 15.945312 19.917969 16.164062 19.699219 16.164062 19.425781 16.164062 17.265625 14.40625 15.507812 12.246094 15.507812zM9.796875 13.058594C9.796875 13.601562 9.355469 14.039062 8.816406 14.039062 8.273438 14.039062 7.835938 13.601562 7.835938 13.058594 7.835938 12.519531 8.273438 12.078125 8.816406 12.078125 9.355469 12.078125 9.796875 12.519531 9.796875 13.058594zM16.652344 13.058594C16.652344 13.601562 16.214844 14.039062 15.671875 14.039062 15.132812 14.039062 14.695312 13.601562 14.695312 13.058594 14.695312 12.519531 15.132812 12.078125 15.671875 12.078125 16.214844 12.078125 16.652344 12.519531 16.652344 13.058594zM16.652344 13.058594"/>
    <path d="M 22.476562 9.785156 C 22.449219 9.644531 22.40625 9.507812 22.375 9.371094 C 22.34375 9.246094 22.316406 9.121094 22.285156 9 C 22.226562 8.789062 22.15625 8.585938 22.085938 8.382812 C 22.058594 8.296875 22.03125 8.207031 22 8.121094 C 21.910156 7.882812 21.8125 7.652344 21.707031 7.425781 C 21.683594 7.375 21.664062 7.324219 21.640625 7.273438 C 21.527344 7.035156 21.402344 6.800781 21.269531 6.574219 C 21.246094 6.535156 21.226562 6.492188 21.203125 6.453125 C 21.089844 6.257812 20.964844 6.070312 20.839844 5.886719 C 20.789062 5.808594 20.738281 5.726562 20.683594 5.652344 C 20.617188 5.558594 20.542969 5.46875 20.472656 5.375 C 18.488281 2.78125 15.378906 1.144531 11.921875 1.144531 C 7.863281 1.144531 4.277344 3.480469 2.496094 6.996094 C 2.464844 7.0625 2.429688 7.125 2.398438 7.1875 C 2.320312 7.351562 2.25 7.519531 2.179688 7.683594 C 2.125 7.816406 2.066406 7.945312 2.015625 8.078125 C 1.964844 8.214844 1.921875 8.355469 1.875 8.496094 C 1.820312 8.65625 1.765625 8.816406 1.71875 8.984375 C 1.683594 9.121094 1.652344 9.261719 1.617188 9.398438 C 1.589844 9.527344 1.550781 9.652344 1.523438 9.785156 C 0.640625 10.265625 0 11.304688 0 12.324219 C 0 13.378906 0.621094 14.328125 1.570312 14.761719 C 2.792969 19.539062 7.046875 22.855469 12 22.855469 C 16.953125 22.855469 21.207031 19.539062 22.429688 14.761719 C 23.378906 14.328125 24 13.378906 24 12.324219 C 24 11.304688 23.359375 10.265625 22.476562 9.785156 Z M 2.589844 9.542969 C 2.621094 9.410156 2.65625 9.277344 2.695312 9.148438 C 2.738281 9 2.785156 8.851562 2.835938 8.703125 C 2.875 8.59375 2.914062 8.480469 2.957031 8.371094 C 3.023438 8.199219 3.09375 8.03125 3.167969 7.863281 C 3.199219 7.796875 3.230469 7.726562 3.265625 7.65625 C 4.832031 4.398438 8.132812 2.285156 12 2.285156 C 15 2.285156 17.664062 3.554688 19.4375 5.648438 C 19.4375 5.648438 19.4375 5.648438 19.441406 5.652344 C 19.59375 5.832031 19.738281 6.023438 19.878906 6.21875 C 19.941406 6.304688 20 6.390625 20.058594 6.480469 C 20.140625 6.601562 20.222656 6.726562 20.300781 6.855469 C 20.378906 6.988281 20.453125 7.121094 20.527344 7.257812 C 20.582031 7.355469 20.632812 7.457031 20.6875 7.558594 C 20.761719 7.710938 20.828125 7.863281 20.898438 8.019531 C 20.941406 8.121094 20.984375 8.222656 21.027344 8.328125 C 21.085938 8.480469 21.140625 8.632812 21.191406 8.789062 C 21.230469 8.910156 21.269531 9.03125 21.304688 9.152344 C 21.347656 9.296875 21.386719 9.441406 21.421875 9.585938 C 21.4375 9.660156 21.453125 9.738281 21.472656 9.8125 C 19.46875 10.460938 17.976562 9.023438 17.058594 7.65625 C 16.890625 7.40625 16.628906 7.238281 16.335938 7.195312 C 16.035156 7.152344 15.726562 7.230469 15.484375 7.421875 C 10.925781 11.066406 4.332031 10.097656 2.542969 9.746094 C 2.558594 9.679688 2.574219 9.609375 2.589844 9.542969 Z M 21.855469 13.9375 C 21.695312 13.992188 21.574219 14.125 21.535156 14.292969 C 20.503906 18.757812 16.582031 21.875 12 21.875 C 7.417969 21.875 3.496094 18.757812 2.464844 14.292969 C 2.425781 14.128906 2.304688 13.992188 2.144531 13.9375 C 1.449219 13.703125 0.980469 13.050781 0.980469 12.324219 C 0.980469 11.660156 1.4375 10.9375 2.015625 10.636719 C 2.582031 10.765625 4.355469 11.128906 6.625 11.128906 C 9.492188 11.128906 13.140625 10.550781 16.097656 8.1875 C 16.132812 8.160156 16.167969 8.160156 16.1875 8.160156 C 16.222656 8.167969 16.242188 8.191406 16.246094 8.199219 C 17.863281 10.609375 19.90625 11.472656 22.015625 10.65625 C 22.582031 10.964844 23.019531 11.675781 23.019531 12.324219 C 23.019531 13.054688 22.550781 13.699219 21.855469 13.9375 Z M 21.855469 13.9375"/>
</svg>

<svg xmlns="http://www.w3.org/2000/svg" width="32" height="32" viewBox="0 0 24 24">
    <path d="M12.246 15.508a3.923 3.923 0 0 0-3.918 3.918.49.49 0 1 0 .977 0 2.94 2.94 0 1 1 5.879 0 .49.49 0 1 0 .98 0 3.923 3.923 0 0 0-3.918-3.918zm0 0M9.797 13.059a.981.981 0 1 1-1.962-.002.981.981 0 0 1 1.962.002zm0 0M16.652 13.059a.979.979 0 1 1-1.957 0c0-.54.438-.98.977-.98.543 0 .98.44.98.98zm0 0"/>
    <path d="M22.477 9.785c-.028-.14-.07-.277-.102-.414-.031-.125-.059-.25-.09-.371-.058-.21-.129-.414-.2-.617-.026-.086-.054-.176-.085-.262-.09-.238-.188-.469-.293-.695l-.066-.153a9.187 9.187 0 0 0-.371-.699c-.024-.039-.043-.082-.067-.12a9.324 9.324 0 0 0-.363-.567c-.05-.078-.102-.16-.156-.235-.067-.093-.141-.183-.211-.277a10.745 10.745 0 0 0-8.551-4.23c-4.059 0-7.645 2.335-9.426 5.851-.031.066-.066.129-.098.191-.078.165-.148.333-.218.497-.055.132-.114.261-.164.394-.051.137-.094.277-.141.418-.055.16-.11.32-.156.488-.035.137-.067.278-.102.414-.027.13-.066.254-.094.387-.882.48-1.523 1.52-1.523 2.54 0 1.054.621 2.003 1.57 2.437A10.721 10.721 0 0 0 12 22.855c4.953 0 9.207-3.316 10.43-8.093A2.683 2.683 0 0 0 24 12.324c0-1.02-.64-2.058-1.523-2.539zM2.59 9.543a9.758 9.758 0 0 1 .246-.84c.039-.11.078-.223.121-.332.066-.172.137-.34.211-.508.031-.066.062-.136.098-.207C4.832 4.398 8.133 2.286 12 2.286c3 0 5.664 1.269 7.438 3.362l.003.004a9.073 9.073 0 0 1 .618.828c.082.122.164.247.242.375.078.133.152.266.226.403.055.097.106.199.16.3.075.153.141.305.211.462l.13.308a12.945 12.945 0 0 1 .277.824c.043.145.082.29.117.434.015.074.031.152.05.226-2.003.649-3.495-.789-4.413-2.156a1.058 1.058 0 0 0-.723-.46c-.3-.044-.61.034-.852.226-4.558 3.644-11.152 2.676-12.941 2.324l.047-.203zm19.265 4.395a.491.491 0 0 0-.32.355A9.741 9.741 0 0 1 12 21.875a9.741 9.741 0 0 1-9.535-7.582.498.498 0 0 0-.32-.355A1.708 1.708 0 0 1 .98 12.323c0-.664.458-1.386 1.036-1.687.566.129 2.34.492 4.609.492 2.867 0 6.516-.578 9.473-2.941.035-.028.07-.028.09-.028a.092.092 0 0 1 .058.04c1.617 2.41 3.66 3.273 5.77 2.456.566.309 1.004 1.02 1.004 1.668 0 .73-.47 1.375-1.165 1.614zm0 0"/>
</svg>
